X:117
T:Honey moon
R:Reel
O:Ireland
B:Kerr's Second p33
S:several web abc's
S:My arrangement from various sources
Z:Transcription, arrangement, chords:Mike Long
M:4/4
L:1/8
K:G
dc|\
"G"BG~G2 DG~G2|"G"Bdef "C"gedc|"G"BG~G2 DG~G2|"G"BedB "D"A2dc|\
"G"BG~G2 DG~G2|
"G"Bdef "C"g2ga|"G"bgaf "C"gfed|"C"(3(efg) "D"dBA2:|\
|:Bd|\
"Em"~e2ef edBA|"Em"Bdef "C"gedc|
"G"BGG2 DG~G2|"G"BedB "D"A2Bd|\
"Em"~e2ef edBA|"Em"Bdef "C"g2ga|"G"bgaf "C"gfed|"C"(3(efg) "D"dBA2:|
